X: 262
M: C|
L: 1/8
K: Bb
V: 1
d | BFDF BcdB | edcB Accd | BFDF GABg | fdec B2B ||
d | BFDF BcdB | ecdB cGGc | BFDF GABg | fdec B2B |]
V: 2 clef=bass middle=d
z | B2B2 F2F2 | B2B2 c2B2 | B2d2 f2F2 | e2f2 B3 :|
z | B2B2 B2B2 | e2=e2 f2F2 | B2B2 B2d2 | f2F2 B2B ||
z | B2B2 d2B2 | c2d2 e2E2 | B2B2 e2E2 | f2F2 B2B |]


